X:74
T:Green Fields of Rossbeigh (reel), The 
T:The Kerry Reel 
B:CRE1.181 (Pairceanna Glasa Ros Beithe)
F:file ID: cre.1/074green_fi_r
S:Sonny Brogan
N:This would my preference for measure 4: /BFAF E2FA/
M:C
L:1/8
Q:180
R:reel
K:Em
d^c|BEE2 BAFA|ABde fded|BEE2 BAFA|BFAF DEFA|
B2Bd BAFA|ABde fded|BEE2 BAFA|BFAF E2:|
FA|(3B^cd ef gfge|dBB/A/B dBA2|(3B^cd ef gfge|dBAF E2ef|
g2ga gfed|f2fg fedB|ABde fgfe|dBAF E2:|

